X:557
T:Gilderoy
B:Surenne, Songs of Scotland... (c1870s)
N:Transposed from Bb for comparison
Z:Nigel Gatherer
L:1/8
M:4/4
K:Am
E2  | A2 A>B c>Bcd  | e2 dc d2 cd  | e2 G2 cAGE   | G4 z2
c>B | A>^GAB c>Bcd  | e>def e2 ag  | fedc  B3 A   | B4 z2 ||
e>f | g>^fga g2 =fe | fedc  d2 c>d | e2 G2 c<AG>E | G4 z2
c>B | A>^GAB c>Bcd  | e>def e2 ag  | fedc  B3 A   | B4 z2 |]
<end>
<start>
